svg/gridicons-heading-h4.svg

<?xml version="1.0" encoding="iso-8859-1"?>
<!-- Generator: Adobe Illustrator 21.1.0, SVG Export Plug-In . SVG Version: 6.00 Build 0)  -->
<svg version="1.1" xmlns="http://www.w3.org/2000/svg" xmlns:xlink="http://www.w3.org/1999/xlink" x="0px" y="0px"
	 viewBox="0 0 24 24" style="enable-background:new 0 0 24 24;" xml:space="preserve">
<g id="heading-h4">
	<path d="M11,17H9v-4H5v4H3V7h2v4h4V7h2V17z M21,15h-1v2h-2v-2h-5v-2l4.05-6H20v6h1V15z M18,13c0,0,0-3.68,0-4l-2.79,4H18z"/>
</g>
<g id="Layer_1">
</g>
</svg>

<svg xmlns="http://www.w3.org/2000/svg" viewBox="0 0 24 24"><title>gridicons-heading-h4</title><g id="Artwork"><g id="heading"><path d="M11,17H9V13H5v4H3V7H5v4H9V7h2Z"/></g><path d="M21,15H20v2H18V15H13V13l4.05-6H20v6h1Zm-3-2s0-3.68,0-4l-2.79,4Z"/></g></svg>
